X: 1
T: Blue Monk
C: Thelonious Monk
M: 4/4
L: 1/8
Q: 150
%%songbook-tags: Swing, Blues
%%songbook-createdAt: 2026-02-26T19:50:39.446Z
%%songbook-updatedAt: 2026-02-26T19:50:39.446Z
K: Bb
"Bb"DE=EF-F4|"Eb7"G^GAB-B4|"Bb7"F=GF=E _EF,^CD-|D _E2 C-C4|
"Eb7"G^GAB-B4|"Eo7"B=Bc_d-d4|"Bb7"F=GF=E _EF,^CD-|D6 (3FFF|
"Cm7"F F,3 - F,4|"F7"F=GF=E _EF,^CD-|"Bb7" D2 FG F=E_EF,| _CD3-D4||
